img/icon-license-1.svg

<svg fill="none" height="15" viewBox="0 0 16 15" width="16" xmlns="http://www.w3.org/2000/svg"><path clip-rule="evenodd" d="m8.74991 1.06104c0-.198917-.07902-.389683-.21967-.530335-.14066-.140652-.33142-.21967-.53033-.21967-.19892 0-.38968.079018-.53033.21967-.14066.140652-.21967.331418-.21967.530335v1.25h-.984c-.305 0-.604.08-.869.23l-1.288.737c-.03806.02176-.08116.03315-.125.033h-2.234c-.19892 0-.38968.07901-.53033.21966-.14066.14066-.219673.33142-.219673.53034 0 .19891.079013.38967.219673.53033.14065.14065.33141.21967.53033.21967h.428l-2.1120034 4.692c-.06238195.13881-.0810601.29331-.0535537.44299.0275064.14967.0998951.28747.2075541.39497l.53-.52996-.53.52996v.001l.002.002.002.002.006.006.016.015.045.04c.210311.1763.440547.3273.686.45.629703.307 1.322493.4625 2.023003.454.88 0 1.556-.22 2.023-.454.24544-.1227.47568-.2737.686-.45l.045-.04.016-.015.006-.006.002-.002.001-.002-.529-.53096.53.52996c.10766-.1075.18004-.2453.20755-.39497.02751-.14968.00883-.30418-.05355-.44299l-2.112-4.692h.162c.305 0 .604-.08.869-.23l1.289-.737c.03776-.02161.0805-.03298.124-.033h.984v9.49996h-2.5c-.19892 0-.38968.0791-.53033.2197-.14066.1407-.21967.3314-.21967.5303s.07901.3897.21967.5304c.14065.1406.33141.2196.53033.2196h6.49999c.1989 0 .3897-.079.5303-.2196.1407-.1407.2197-.3315.2197-.5304s-.079-.3896-.2197-.5303c-.1406-.1406-.3314-.2197-.5303-.2197h-2.49999v-9.49996h.984c.0435.00002.08624.01139.124.033l1.28999.736c.264.152.563.231.868.231h.162l-2.112 4.692c-.0624.13881-.08105.29331-.0535.44299.0275.14967.0998.28747.2075.39497l.53-.52996-.53.52996v.001l.002.002.002.002.006.006.016.015.045.04c.2103.1763.4406.3273.686.45.6297.307 1.3225.4625 2.023.454.88 0 1.556-.22 2.023-.454.2455-.1226.4757-.2737.686-.45l.045-.04.01-.01.006-.005.006-.006.002-.002.001-.002-.529-.53096.53.52996c.1077-.1075.1801-.2453.2076-.39497.0275-.14968.0088-.30418-.0536-.44299l-2.111-4.692h.427c.1989 0 .3897-.07902.5303-.21967.1407-.14066.2197-.33142.2197-.53033 0-.19892-.079-.38968-.2197-.53034-.1406-.14065-.3314-.21966-.5303-.21966h-2.234c-.0435-.00003-.0862-.0114-.124-.033l-1.29-.736c-.264-.15104-.5628-.23066-.86699-.231h-.985zm-7.055 8.477c.285.135.718.273 1.305.273s1.02-.138 1.305-.273l-1.305-2.9zm9.99999 0c.285.135.718.273 1.305.273s1.02-.138 1.305-.273l-1.305-2.9z" fill="#000" fill-rule="evenodd"/></svg>

<svg width="16" height="15" viewBox="0 0 16 15" fill="none" xmlns="http://www.w3.org/2000/svg">
<path fill-rule="evenodd" clip-rule="evenodd" d="M8.74991 1.06104C8.74991 0.862123 8.67089 0.671357 8.53024 0.530705C8.38958 0.390053 8.19882 0.311035 7.99991 0.311035C7.80099 0.311035 7.61023 0.390053 7.46958 0.530705C7.32892 0.671357 7.24991 0.862123 7.24991 1.06104V2.31104H6.26591C5.96091 2.31104 5.66191 2.39104 5.39691 2.54104L4.10891 3.27804C4.07085 3.2998 4.02775 3.31119 3.98391 3.31104H1.74991C1.55099 3.31104 1.36023 3.39005 1.21958 3.5307C1.07892 3.67136 0.999907 3.86212 0.999907 4.06104C0.999907 4.25995 1.07892 4.45071 1.21958 4.59137C1.36023 4.73202 1.55099 4.81104 1.74991 4.81104H2.17791L0.0659066 9.50304C0.00352465 9.64185 -0.0151535 9.79635 0.0123529 9.94603C0.0398593 10.0957 0.112248 10.2335 0.219907 10.341L0.749907 9.81104L0.219907 10.341V10.342L0.221907 10.344L0.223907 10.346L0.229907 10.352L0.245907 10.367L0.290907 10.407C0.501218 10.5833 0.731454 10.7343 0.976907 10.857C1.60661 11.164 2.2994 11.3195 2.99991 11.311C3.87991 11.311 4.55591 11.091 5.02291 10.857C5.26835 10.7343 5.49859 10.5833 5.70891 10.407L5.75391 10.367L5.76991 10.352L5.77591 10.346L5.77791 10.344L5.77891 10.342L5.24991 9.81104L5.77991 10.341C5.88757 10.2335 5.95995 10.0957 5.98746 9.94603C6.01497 9.79635 5.99629 9.64185 5.93391 9.50304L3.82191 4.81104H3.98391C4.28891 4.81104 4.58791 4.73104 4.85291 4.58104L6.14191 3.84404C6.17967 3.82243 6.22241 3.81106 6.26591 3.81104H7.24991V13.311H4.74991C4.55099 13.311 4.36023 13.3901 4.21958 13.5307C4.07892 13.6714 3.99991 13.8621 3.99991 14.061C3.99991 14.2599 4.07892 14.4507 4.21958 14.5914C4.36023 14.732 4.55099 14.811 4.74991 14.811H11.2499C11.4488 14.811 11.6396 14.732 11.7802 14.5914C11.9209 14.4507 11.9999 14.2599 11.9999 14.061C11.9999 13.8621 11.9209 13.6714 11.7802 13.5307C11.6396 13.3901 11.4488 13.311 11.2499 13.311H8.74991V3.81104H9.73391C9.77741 3.81106 9.82015 3.82243 9.85791 3.84404L11.1479 4.58004C11.4119 4.73204 11.7109 4.81104 12.0159 4.81104H12.1779L10.0659 9.50304C10.0035 9.64185 9.98485 9.79635 10.0124 9.94603C10.0399 10.0957 10.1122 10.2335 10.2199 10.341L10.7499 9.81104L10.2199 10.341V10.342L10.2219 10.344L10.2239 10.346L10.2299 10.352L10.2459 10.367L10.2909 10.407C10.5012 10.5833 10.7315 10.7343 10.9769 10.857C11.6066 11.164 12.2994 11.3195 12.9999 11.311C13.8799 11.311 14.5559 11.091 15.0229 10.857C15.2684 10.7344 15.4986 10.5833 15.7089 10.407L15.7539 10.367L15.7639 10.357L15.7699 10.352L15.7759 10.346L15.7779 10.344L15.7789 10.342L15.2499 9.81104L15.7799 10.341C15.8876 10.2335 15.96 10.0957 15.9875 9.94603C16.015 9.79635 15.9963 9.64185 15.9339 9.50304L13.8229 4.81104H14.2499C14.4488 4.81104 14.6396 4.73202 14.7802 4.59137C14.9209 4.45071 14.9999 4.25995 14.9999 4.06104C14.9999 3.86212 14.9209 3.67136 14.7802 3.5307C14.6396 3.39005 14.4488 3.31104 14.2499 3.31104H12.0159C11.9724 3.31101 11.9297 3.29964 11.8919 3.27804L10.6019 2.54204C10.3379 2.391 10.0391 2.31138 9.73491 2.31104H8.74991V1.06104ZM1.69491 9.53804C1.97991 9.67304 2.41291 9.81104 2.99991 9.81104C3.58691 9.81104 4.01991 9.67304 4.30491 9.53804L2.99991 6.63804L1.69491 9.53804ZM11.6949 9.53804C11.9799 9.67304 12.4129 9.81104 12.9999 9.81104C13.5869 9.81104 14.0199 9.67304 14.3049 9.53804L12.9999 6.63804L11.6949 9.53804Z" fill="black"/>
</svg>
